assets/img/braze_icons/user-minus-02.svg

<svg fill="none" height="24" viewBox="0 0 24 24" width="24" xmlns="http://www.w3.org/2000/svg"><g clip-rule="evenodd" fill="#801ed7" fill-rule="evenodd"><path d="m15 7c0-.55228.4477-1 1-1h6c.5523 0 1 .44772 1 1s-.4477 1-1 1h-6c-.5523 0-1-.44772-1-1z"/><path d="m6.75864 14h4.48256c.805 0 1.4694 0 2.0106.0442.5621.0459 1.0788.1445 1.5641.3918.7527.3835 1.3646.9954 1.7481 1.748.2473.4854.3458 1.0021.3917 1.5642.0443.5412.0443 1.2055.0442 2.0105 0 .2827.0129.5691-.0101.8511-.0119.1452-.0423.3532-.1533.5712-.1439.2822-.3733.5117-.6556.6555-.2179.1111-.4259.1415-.5711.1534-.1253.0102-.2676.0102-.3867.0101-4.1488-.0015-8.29754-.0015-12.4463 0-.11911.0001-.26137.0001-.38669-.0101-.14522-.0119-.35321-.0423-.57115-.1534-.28225-.1438-.51172-.3733-.65553-.6555-.11105-.218-.14149-.426-.15336-.5712-.023035-.282-.010129-.5685-.010129-.8511-.000013-.805-.000023-1.4693.044199-2.0105.04592-.5621.14448-1.0788.39178-1.5642.38349-.7526.99541-1.3645 1.74806-1.748.48533-.2473 1.00204-.3459 1.56414-.3918.54119-.0442 1.20555-.0442 2.01052-.0442z"/><path d="m4.49994 7.5c0-2.48528 2.01472-4.5 4.5-4.5 2.48526 0 4.49996 2.01472 4.49996 4.5s-2.0147 4.5-4.49996 4.5c-2.48528 0-4.5-2.01472-4.5-4.5z"/></g></svg>

<svg width="24" height="24" viewBox="0 0 24 24" fill="none" xmlns="http://www.w3.org/2000/svg">
<path fill-rule="evenodd" clip-rule="evenodd" d="M15 7C15 6.44772 15.4477 6 16 6H22C22.5523 6 23 6.44772 23 7C23 7.55228 22.5523 8 22 8H16C15.4477 8 15 7.55228 15 7Z" fill="#801ED7"/>
<path fill-rule="evenodd" clip-rule="evenodd" d="M6.75864 14H11.2412C12.0462 14 12.7106 14 13.2518 14.0442C13.8139 14.0901 14.3306 14.1887 14.8159 14.436C15.5686 14.8195 16.1805 15.4314 16.564 16.184C16.8113 16.6694 16.9098 17.1861 16.9557 17.7482C17 18.2894 17 18.9537 16.9999 19.7587C16.9999 20.0414 17.0128 20.3278 16.9898 20.6098C16.9779 20.755 16.9475 20.963 16.8365 21.181C16.6926 21.4632 16.4632 21.6927 16.1809 21.8365C15.963 21.9476 15.755 21.978 15.6098 21.9899C15.4845 22.0001 15.3422 22.0001 15.2231 22C11.0743 21.9985 6.92556 21.9985 2.7768 22C2.65769 22.0001 2.51543 22.0001 2.39011 21.9899C2.24489 21.978 2.0369 21.9476 1.81896 21.8365C1.53671 21.6927 1.30724 21.4632 1.16343 21.181C1.05238 20.963 1.02194 20.755 1.01007 20.6098C0.987035 20.3278 0.999941 20.0413 0.999941 19.7587C0.999928 18.9537 0.999918 18.2894 1.04414 17.7482C1.09006 17.1861 1.18862 16.6694 1.43592 16.184C1.81941 15.4314 2.43133 14.8195 3.18398 14.436C3.66931 14.1887 4.18602 14.0901 4.74812 14.0442C5.28931 14 5.95367 14 6.75864 14Z" fill="#801ED7"/>
<path fill-rule="evenodd" clip-rule="evenodd" d="M4.49994 7.5C4.49994 5.01472 6.51466 3 8.99994 3C11.4852 3 13.4999 5.01472 13.4999 7.5C13.4999 9.98528 11.4852 12 8.99994 12C6.51466 12 4.49994 9.98528 4.49994 7.5Z" fill="#801ED7"/>
</svg>
